cloudphone-mobile/gear/svg/cloud-gear-group-3.svg

<svg xmlns="http://www.w3.org/2000/svg" preserveAspectRatio="xMidYMid" width="140" height="76" viewBox="0 0 140 76"><defs><style>.cls-1,.cls-2,.cls-4{stroke:#c0c9d3}.cls-1,.cls-2,.cls-3,.cls-4,.cls-5{stroke-linecap:round;stroke-linejoin:round;fill:none}.cls-1,.cls-2,.cls-3{stroke-width:.83px}.cls-2,.cls-3,.cls-4,.cls-5{fill-rule:evenodd}.cls-3,.cls-5{stroke:#cae0f6}.cls-4,.cls-5{stroke-width:1.66px}.gear-m{-webkit-animation-timing-function:linear;animation-timing-function:linear;-webkit-animation-iteration-count:infinite;animation-iteration-count:infinite;-webkit-animation-direction:normal;animation-direction:normal;-webkit-animation-play-state:running;animation-play-state:running;-webkit-animation-fill-mode:forwards;animation-fill-mode:forwards}@-webkit-keyframes rotateAnim{0%{-webkit-transform:rotate(0deg);transform:rotate(0deg)}50%{-webkit-transform:rotate(180deg);transform:rotate(180deg)}to{-webkit-transform:rotate(360deg);transform:rotate(360deg)}}@keyframes rotateAnim{0%{-webkit-transform:rotate(0deg);transform:rotate(0deg)}50%{-webkit-transform:rotate(180deg);transform:rotate(180deg)}to{-webkit-transform:rotate(360deg);transform:rotate(360deg)}}@-webkit-keyframes rotateReverseAnim{0%{-webkit-transform:rotate(0deg);transform:rotate(0deg)}50%{-webkit-transform:rotate(-180deg);transform:rotate(-180deg)}to{-webkit-transform:rotate(-360deg);transform:rotate(-360deg)}}@keyframes rotateReverseAnim{0%{-webkit-transform:rotate(0deg);transform:rotate(0deg)}50%{-webkit-transform:rotate(-180deg);transform:rotate(-180deg)}to{-webkit-transform:rotate(-360deg);transform:rotate(-360deg)}}.gear-1{-webkit-animation-name:rotateAnim;animation-name:rotateAnim;-webkit-animation-duration:6s;animation-duration:6s;-webkit-transform-origin:29px 59px;-ms-transform-origin:29px 59px;transform-origin:29px 59px}.gear-2{-webkit-animation-name:rotateReverseAnim;animation-name:rotateReverseAnim;-webkit-animation-duration:8s;animation-duration:8s;-webkit-transform-origin:60px 31px;-ms-transform-origin:60px 31px;transform-origin:60px 31px}.gear-3,.gear-4,.gear-5,.gear-inner-1{-webkit-animation-name:rotateAnim;animation-name:rotateAnim;-webkit-animation-duration:6s;animation-duration:6s;-webkit-transform-origin:99px 60px;-ms-transform-origin:99px 60px;transform-origin:99px 60px}.gear-4,.gear-5,.gear-inner-1{-webkit-transform-origin:104px 28px;-ms-transform-origin:104px 28px;transform-origin:104px 28px}.gear-5,.gear-inner-1{-webkit-animation-name:rotateReverseAnim;animation-name:rotateReverseAnim;-webkit-transform-origin:151.5px 55.5px;-ms-transform-origin:151.5px 55.5px;transform-origin:151.5px 55.5px}.gear-inner-1{-webkit-animation-duration:8s;animation-duration:8s;-webkit-transform-origin:49px 39px;-ms-transform-origin:49px 39px;transform-origin:49px 39px}</style></defs><circle cx="133" cy="61.5" r="3.5" class="cls-1"/><path d="M61.5 20.5a4.5 4.5 0 1 1 0-9 4.5 4.5 0 0 1 0 9zm0-8a3.5 3.5 0 1 0 0 7 3.5 3.5 0 0 0 0-7zm0 4a.5.5 0 1 1 0-1 .5.5 0 0 1 0 1z" class="cls-2"/><circle cx="4" cy="46.5" r="3.5" class="cls-1"/><path d="M134.43 15.31l2.07.69h-2c0 .85-.191 1.648-.511 2.377L135.428 20l-1.748-1.009a6.007 6.007 0 0 1-1.619 1.792l.439 2.145-1.019-1.764c-.69.397-1.461.67-2.291.766L128.5 24v-2c-.85 0-1.648-.191-2.377-.511l-1.623 1.439 1.009-1.748a6.007 6.007 0 0 1-1.792-1.619l-2.145.439 1.764-1.019a5.958 5.958 0 0 1-.766-2.291L120.5 16h2c0-.85.191-1.648.511-2.377L121.572 12l1.748 1.009a6.007 6.007 0 0 1 1.619-1.792l-.439-2.145 1.019 1.764a5.958 5.958 0 0 1 2.291-.766L128.5 8v2c.85 0 1.648.191 2.377.511l1.623-1.439-1.009 1.748a6.007 6.007 0 0 1 1.792 1.619l2.145-.439-1.764 1.019c.397.69.67 1.461.766 2.291z" class="cls-3"/><path d="M30.884 19.932l1.704.568h-1.647c0 .7-.157 1.357-.421 1.958l1.186 1.336-1.44-.831a4.958 4.958 0 0 1-1.337 1.46l.365 1.783-.848-1.469c-.568.327-1.194.568-1.878.647L26 27.088v-1.647c-.7 0-1.357-.157-1.958-.421l-1.336 1.186.831-1.44a4.958 4.958 0 0 1-1.46-1.337l-1.783.365 1.469-.848c-.327-.568-.568-1.194-.647-1.878l-1.704-.568h1.647c0-.7.157-1.357.421-1.958l-1.186-1.336 1.44.831a4.958 4.958 0 0 1 1.337-1.46l-.365-1.783.848 1.469c.568-.327 1.194-.568 1.878-.647L26 13.912v1.647c.7 0 1.357.157 1.958.421l1.336-1.186-.831 1.44a4.958 4.958 0 0 1 1.46 1.337l1.783-.365-1.469.848c.327.568.568 1.194.647 1.878z" class="cls-2"/><path d="M27.43 36.31l2.07.69h-2c0 .85-.191 1.648-.511 2.377L28.428 41l-1.748-1.009a6.007 6.007 0 0 1-1.619 1.792l.439 2.145-1.019-1.764c-.69.397-1.461.67-2.291.766L21.5 45v-2c-.85 0-1.648-.191-2.377-.511L17.5 43.928l1.009-1.748a6.007 6.007 0 0 1-1.792-1.619L14.572 41l1.764-1.019a5.958 5.958 0 0 1-.766-2.291L13.5 37h2c0-.85.191-1.648.511-2.377L14.572 33l1.748 1.009a6.007 6.007 0 0 1 1.619-1.792l-.439-2.145 1.019 1.764a5.958 5.958 0 0 1 2.291-.766L21.5 29v2c.85 0 1.648.191 2.377.511l1.623-1.439-1.009 1.748a6.007 6.007 0 0 1 1.792 1.619L28.428 33l-1.764 1.019c.397.69.67 1.461.766 2.291z" class="cls-3"/><path d="M121.5 52a6 6 0 1 1 0-12 6 6 0 0 1 0 12zm0-7a1 1 0 1 0 0 2 1 1 0 0 0 0-2z" class="cls-4"/><path class="gear-m gear-inner-1 cls-5" d="M56.5 39l-2 1v-2l2 1zm-8 6a6 6 0 1 1 0-12 6 6 0 0 1 0 12zm0-7a1 1 0 1 0 0 2 1 1 0 0 0 0-2zm0 9l-1-2h2l-1 2zm-8-8l2-1v2l-2-1zm8-8l1 2h-2l1-2zm3.536 3.05l2.121-.707-.707 2.121-1.414-1.414zm-9.193-.707l2.121.707-1.414 1.414-.707-2.121zm2.121 10.607l-2.121.707.707-2.121 1.414 1.414zm9.193.707l-2.121-.707 1.414-1.414.707 2.121z"/><path class="gear-m gear-4 cls-4" d="M111.66 22.134L115.624 21l-2.964 2.866-1-1.732zM117.5 28l-4 1v-2l4 1zm-14 10c-5.523 0-10-4.477-10-10s4.477-10 10-10 10 4.477 10 10-4.477 10-10 10zm0 4l-1-4h2l-1 4zm-14-14l4-1v2l-4-1zm14-14l1 4h-2l1-4zm4.134 4.84l2.866-2.964-1.134 3.964-1.732-1zM96.5 15.876l2.866 2.964-1.732 1-1.134-3.964zM91.376 21l3.964 1.134-1 1.732L91.376 21zm3.964 12.866L91.376 35l2.964-2.866 1 1.732zm4.026 3.294L96.5 40.124l1.134-3.964 1.732 1zm11.134 2.964l-2.866-2.964 1.732-1 1.134 3.964zM115.624 35l-3.964-1.134 1-1.732L115.624 35z"/><path class="gear-m gear-1 cls-4" d="M42.5 59l-4 1v-2l4 1zm-14 10c-5.523 0-10-4.477-10-10s4.477-10 10-10 10 4.477 10 10-4.477 10-10 10zm0 4l-1-4h2l-1 4zm-14-14l4-1v2l-4-1zm14-14l1 4h-2l1-4zm6.364 6.222l3.535-2.121-2.121 3.535-1.414-1.414zm-16.263-2.121l3.535 2.121-1.414 1.414-2.121-3.535zm3.535 17.677l-3.535 2.121 2.121-3.535 1.414 1.414zm16.263 2.121l-3.535-2.121 1.414-1.414 2.121 3.535z"/><path class="gear-m gear-3 cls-4" d="M107.526 53.634l3.098-.634-2.098 2.366-1-1.732zM112.5 60l-3 1v-2l3 1zm-14 11c-6.075 0-11-4.925-11-11s4.925-11 11-11 11 4.925 11 11-4.925 11-11 11zm0-12a1 1 0 1 0 0 2 1 1 0 0 0 0-2zm0 15l-1-3h2l-1 3zm-14-14l3-1v2l-3-1zm14-14l1 3h-2l1-3zm4.634 3.974l2.366-2.098-.634 3.098-1.732-1zM91.5 47.876l2.366 2.098-1.732 1-.634-3.098zM86.376 53l3.098.634-1 1.732L86.376 53zm3.098 13.366L86.376 67l2.098-2.366 1 1.732zm4.392 3.66L91.5 72.124l.634-3.098 1.732 1zm11.634 2.098l-2.366-2.098 1.732-1 .634 3.098zM110.624 67l-3.098-.634 1-1.732L110.624 67z"/><path class="gear-m gear-2 cls-4" d="M79.785 18.134l4.83-1.634-3.83 3.366-1-1.732zM88.5 31l-5 1v-2l5 1zm-29 24c-13.255 0-24-10.745-24-24s10.745-24 24-24 24 10.745 24 24-10.745 24-24 24zm0-27a3 3 0 1 0 0 6 3 3 0 0 0 0-6zm0 32l-1-5h2l-1 5zm-29-29l5-1v2l-5-1zm29-29l1 5h-2l1-5zm11.134 7.715L74 5.885l-1.634 4.83-1.732-1zM45 5.885l3.366 3.83-1.732 1L45 5.885zM34.385 16.5l4.83 1.634-1 1.732-3.83-3.366zm4.83 27.366l-4.83 1.634 3.83-3.366 1 1.732zm9.151 8.419L45 56.115l1.634-4.83 1.732 1zM74 56.115l-3.366-3.83 1.732-1L74 56.115zM84.615 45.5l-4.83-1.634 1-1.732 3.83 3.366z"/></svg>

<svg xmlns="http://www.w3.org/2000/svg" xmlns:xlink="http://www.w3.org/1999/xlink" preserveAspectRatio="xMidYMid" width="140" height="76" viewBox="0 0 140 76">
  <defs>
    <style>
        .cls-1, .cls-2, .cls-4 {
        stroke: #c0c9d3;
        }

        .cls-1, .cls-2, .cls-3, .cls-4, .cls-5 {
        stroke-linecap: round;
        stroke-linejoin: round;
        fill: none;
        }

        .cls-1, .cls-2, .cls-3 {
        stroke-width: 0.83px;
        }

        .cls-2, .cls-3, .cls-4, .cls-5 {
        fill-rule: evenodd;
        }

        .cls-3, .cls-5 {
        stroke: #cae0f6;
        }

        .cls-4, .cls-5 {
        stroke-width: 1.66px;
        }
        .gear-m{
        -webkit-animation-timing-function: linear;
        animation-timing-function: linear;
        -webkit-animation-iteration-count: infinite;
        animation-iteration-count: infinite;
        -webkit-animation-direction: normal;
        animation-direction: normal;
        -webkit-animation-play-state: running;
        animation-play-state: running;
        -webkit-animation-fill-mode: forwards;
        animation-fill-mode: forwards;
        }
        @-webkit-keyframes rotateAnim {
        0%{
        -webkit-transform: rotate(0deg);
        transform: rotate(0deg);
        }
        50%{
        -webkit-transform: rotate(180deg);
        transform: rotate(180deg);
        }
        100%{
        -webkit-transform: rotate(360deg);
        transform: rotate(360deg);
        }
        }
        @keyframes rotateAnim {
        0%{
        -webkit-transform: rotate(0deg);
        transform: rotate(0deg);
        }
        50%{
        -webkit-transform: rotate(180deg);
        transform: rotate(180deg);
        }
        100%{
        -webkit-transform: rotate(360deg);
        transform: rotate(360deg);
        }
        }
        @-webkit-keyframes rotateReverseAnim {
        0%{
        -webkit-transform: rotate(0deg);
        transform: rotate(0deg);
        }
        50%{
        -webkit-transform: rotate(-180deg);
        transform: rotate(-180deg);
        }
        100%{
        -webkit-transform: rotate(-360deg);
        transform: rotate(-360deg);
        }
        }
        @keyframes rotateReverseAnim {
        0%{
        -webkit-transform: rotate(0deg);
        transform: rotate(0deg);
        }
        50%{
        -webkit-transform: rotate(-180deg);
        transform: rotate(-180deg);
        }
        100%{
        -webkit-transform: rotate(-360deg);
        transform: rotate(-360deg);
        }
        }
        .gear-1{
        -webkit-animation-name:rotateAnim;
        animation-name:rotateAnim;
        -webkit-animation-duration: 6s;
        animation-duration: 6s;
        -webkit-transform-origin:29px 59px;
        -ms-transform-origin:29px 59px;
        transform-origin:29px 59px;
        }
        .gear-2{
        -webkit-animation-name:rotateReverseAnim;
        animation-name:rotateReverseAnim;
        -webkit-animation-duration: 8s;
        animation-duration: 8s;
        -webkit-transform-origin:60px 31px;
        -ms-transform-origin:60px 31px;
        transform-origin:60px 31px;
        }
        .gear-3{
        -webkit-animation-name:rotateAnim;
        animation-name:rotateAnim;
        -webkit-animation-duration: 6s;
        animation-duration: 6s;
        -webkit-transform-origin:99px 60px;
        -ms-transform-origin:99px 60px;
        transform-origin:99px 60px;
        }
        .gear-4{
        -webkit-animation-name:rotateAnim;
        animation-name:rotateAnim;
        -webkit-animation-duration: 6s;
        animation-duration: 6s;
        -webkit-transform-origin:104px 28px;
        -ms-transform-origin:104px 28px;
        transform-origin:104px 28px
        }
        .gear-5{
        -webkit-animation-name:rotateReverseAnim;
        animation-name:rotateReverseAnim;
        -webkit-animation-duration: 6s;
        animation-duration: 6s;
        -webkit-transform-origin:151.5px 55.5px;
        -ms-transform-origin:151.5px 55.5px;
        transform-origin:151.5px 55.5px;
        }
        .gear-inner-1{
        -webkit-animation-name:rotateReverseAnim;
        animation-name:rotateReverseAnim;
        -webkit-animation-duration:8s;
        animation-duration:8s;
        -webkit-transform-origin:49px 39px;
        -ms-transform-origin:49px 39px;
        transform-origin:49px 39px;
        }
    </style>
  </defs>
  <g>
    <circle cx="133" cy="61.5" r="3.5" class="cls-1"/>
    <path d="M61.500,20.500 C59.015,20.500 57.000,18.485 57.000,16.000 C57.000,13.515 59.015,11.500 61.500,11.500 C63.985,11.500 66.000,13.515 66.000,16.000 C66.000,18.485 63.985,20.500 61.500,20.500 ZM61.500,12.500 C59.567,12.500 58.000,14.067 58.000,16.000 C58.000,17.933 59.567,19.500 61.500,19.500 C63.433,19.500 65.000,17.933 65.000,16.000 C65.000,14.067 63.433,12.500 61.500,12.500 ZM61.500,16.500 C61.224,16.500 61.000,16.276 61.000,16.000 C61.000,15.724 61.224,15.500 61.500,15.500 C61.776,15.500 62.000,15.724 62.000,16.000 C62.000,16.276 61.776,16.500 61.500,16.500 Z" class="cls-2"/>
    <circle cx="4" cy="46.5" r="3.5" class="cls-1"/>
    <path d="M134.430,15.310 L136.500,16.000 L134.500,16.000 C134.500,16.850 134.309,17.648 133.989,18.377 L135.428,20.000 L133.680,18.991 C133.269,19.695 132.713,20.300 132.061,20.783 L132.500,22.928 L131.481,21.164 C130.791,21.561 130.020,21.834 129.190,21.930 L128.500,24.000 L128.500,22.000 C127.650,22.000 126.852,21.809 126.123,21.489 L124.500,22.928 L125.509,21.180 C124.805,20.769 124.200,20.213 123.717,19.561 L121.572,20.000 L123.336,18.981 C122.939,18.291 122.666,17.520 122.570,16.690 L120.500,16.000 L122.500,16.000 C122.500,15.150 122.691,14.352 123.011,13.623 L121.572,12.000 L123.320,13.009 C123.731,12.305 124.287,11.700 124.939,11.217 L124.500,9.072 L125.519,10.836 C126.209,10.439 126.980,10.166 127.810,10.070 L128.500,8.000 L128.500,10.000 C129.350,10.000 130.148,10.191 130.877,10.511 L132.500,9.072 L131.491,10.820 C132.195,11.231 132.800,11.787 133.283,12.439 L135.428,12.000 L133.664,13.019 C134.061,13.709 134.334,14.480 134.430,15.310 Z" class="cls-3"/>
    <path d="M30.884,19.932 L32.588,20.500 L30.941,20.500 C30.941,21.200 30.784,21.857 30.520,22.458 L31.706,23.794 L30.266,22.963 C29.929,23.540 29.463,24.025 28.929,24.423 L29.294,26.206 L28.446,24.737 C27.878,25.064 27.252,25.305 26.568,25.384 L26.000,27.088 L26.000,25.441 C25.300,25.441 24.643,25.284 24.042,25.020 L22.706,26.206 L23.537,24.766 C22.960,24.429 22.475,23.963 22.077,23.429 L20.294,23.794 L21.763,22.946 C21.436,22.378 21.195,21.752 21.116,21.068 L19.412,20.500 L21.059,20.500 C21.059,19.800 21.216,19.143 21.480,18.542 L20.294,17.206 L21.734,18.037 C22.071,17.460 22.537,16.975 23.071,16.577 L22.706,14.794 L23.554,16.263 C24.122,15.936 24.748,15.695 25.432,15.616 L26.000,13.912 L26.000,15.559 C26.700,15.559 27.357,15.716 27.958,15.980 L29.294,14.794 L28.463,16.234 C29.040,16.571 29.525,17.037 29.923,17.571 L31.706,17.206 L30.237,18.054 C30.564,18.622 30.805,19.248 30.884,19.932 Z" class="cls-2"/>
    <path d="M27.430,36.310 L29.500,37.000 L27.500,37.000 C27.500,37.850 27.309,38.648 26.989,39.377 L28.428,41.000 L26.680,39.991 C26.269,40.695 25.713,41.300 25.061,41.783 L25.500,43.928 L24.481,42.164 C23.791,42.561 23.020,42.834 22.190,42.930 L21.500,45.000 L21.500,43.000 C20.650,43.000 19.852,42.809 19.123,42.489 L17.500,43.928 L18.509,42.180 C17.805,41.769 17.200,41.213 16.717,40.561 L14.572,41.000 L16.336,39.981 C15.939,39.291 15.666,38.520 15.570,37.690 L13.500,37.000 L15.500,37.000 C15.500,36.150 15.691,35.352 16.011,34.623 L14.572,33.000 L16.320,34.009 C16.731,33.305 17.287,32.700 17.939,32.217 L17.500,30.072 L18.519,31.836 C19.209,31.439 19.980,31.166 20.810,31.070 L21.500,29.000 L21.500,31.000 C22.350,31.000 23.148,31.191 23.877,31.511 L25.500,30.072 L24.491,31.820 C25.195,32.231 25.800,32.787 26.283,33.439 L28.428,33.000 L26.664,34.019 C27.061,34.709 27.334,35.480 27.430,36.310 Z" class="cls-3"/>
    <path d="M121.500,52.000 C118.186,52.000 115.500,49.314 115.500,46.000 C115.500,42.686 118.186,40.000 121.500,40.000 C124.814,40.000 127.500,42.686 127.500,46.000 C127.500,49.314 124.814,52.000 121.500,52.000 ZM121.500,45.000 C120.948,45.000 120.500,45.448 120.500,46.000 C120.500,46.552 120.948,47.000 121.500,47.000 C122.052,47.000 122.500,46.552 122.500,46.000 C122.500,45.448 122.052,45.000 121.500,45.000 Z" class="cls-4"/>
    <path class="gear-m gear-inner-1 cls-5" d="M56.500,39.000 L54.500,40.000 L54.500,39.000 L54.500,38.000 L56.500,39.000 ZM48.500,45.000 C45.186,45.000 42.500,42.314 42.500,39.000 C42.500,35.686 45.186,33.000 48.500,33.000 C51.814,33.000 54.500,35.686 54.500,39.000 C54.500,42.314 51.814,45.000 48.500,45.000 ZM48.500,38.000 C47.948,38.000 47.500,38.448 47.500,39.000 C47.500,39.552 47.948,40.000 48.500,40.000 C49.052,40.000 49.500,39.552 49.500,39.000 C49.500,38.448 49.052,38.000 48.500,38.000 ZM48.500,47.000 L47.500,45.000 L48.500,45.000 L49.500,45.000 L48.500,47.000 ZM40.500,39.000 L42.500,38.000 L42.500,39.000 L42.500,40.000 L40.500,39.000 ZM48.500,31.000 L49.500,33.000 L48.500,33.000 L47.500,33.000 L48.500,31.000 ZM52.036,34.050 L54.157,33.343 L53.450,35.464 L52.036,34.050 ZM42.843,33.343 L44.964,34.050 L43.550,35.464 L42.843,33.343 ZM44.964,43.950 L42.843,44.657 L43.550,42.536 L44.964,43.950 ZM54.157,44.657 L52.036,43.950 L53.450,42.536 L54.157,44.657 Z"/>
    <path class="gear-m gear-4 cls-4" d="M111.660,22.134 L115.624,21.000 L112.660,23.866 L111.660,22.134 ZM117.500,28.000 L113.500,29.000 L113.500,28.000 L113.500,27.000 L117.500,28.000 ZM103.500,38.000 C97.977,38.000 93.500,33.523 93.500,28.000 C93.500,22.477 97.977,18.000 103.500,18.000 C109.023,18.000 113.500,22.477 113.500,28.000 C113.500,33.523 109.023,38.000 103.500,38.000 ZM103.500,42.000 L102.500,38.000 L103.500,38.000 L104.500,38.000 L103.500,42.000 ZM89.500,28.000 L93.500,27.000 L93.500,28.000 L93.500,29.000 L89.500,28.000 ZM103.500,14.000 L104.500,18.000 L103.500,18.000 L102.500,18.000 L103.500,14.000 ZM107.634,18.840 L110.500,15.876 L109.366,19.840 L107.634,18.840 ZM96.500,15.876 L99.366,18.840 L97.634,19.840 L96.500,15.876 ZM91.376,21.000 L95.340,22.134 L94.340,23.866 L91.376,21.000 ZM95.340,33.866 L91.376,35.000 L94.340,32.134 L95.340,33.866 ZM99.366,37.160 L96.500,40.124 L97.634,36.160 L99.366,37.160 ZM110.500,40.124 L107.634,37.160 L109.366,36.160 L110.500,40.124 ZM115.624,35.000 L111.660,33.866 L112.660,32.134 L115.624,35.000 Z"/>
    <path class="gear-m gear-1 cls-4" d="M42.500,59.000 L38.500,60.000 L38.500,59.000 L38.500,58.000 L42.500,59.000 ZM28.500,69.000 C22.977,69.000 18.500,64.523 18.500,59.000 C18.500,53.477 22.977,49.000 28.500,49.000 C34.023,49.000 38.500,53.477 38.500,59.000 C38.500,64.523 34.023,69.000 28.500,69.000 ZM28.500,73.000 L27.500,69.000 L28.500,69.000 L29.500,69.000 L28.500,73.000 ZM14.500,59.000 L18.500,58.000 L18.500,59.000 L18.500,60.000 L14.500,59.000 ZM28.500,45.000 L29.500,49.000 L28.500,49.000 L27.500,49.000 L28.500,45.000 ZM34.864,51.222 L38.399,49.101 L36.278,52.636 L34.864,51.222 ZM18.601,49.101 L22.136,51.222 L20.722,52.636 L18.601,49.101 ZM22.136,66.778 L18.601,68.899 L20.722,65.364 L22.136,66.778 ZM38.399,68.899 L34.864,66.778 L36.278,65.364 L38.399,68.899 Z"/>
    <path class="gear-m gear-3 cls-4" d="M107.526,53.634 L110.624,53.000 L108.526,55.366 L107.526,53.634 ZM112.500,60.000 L109.500,61.000 L109.500,60.000 L109.500,59.000 L112.500,60.000 ZM98.500,71.000 C92.425,71.000 87.500,66.075 87.500,60.000 C87.500,53.925 92.425,49.000 98.500,49.000 C104.575,49.000 109.500,53.925 109.500,60.000 C109.500,66.075 104.575,71.000 98.500,71.000 ZM98.500,59.000 C97.948,59.000 97.500,59.448 97.500,60.000 C97.500,60.552 97.948,61.000 98.500,61.000 C99.052,61.000 99.500,60.552 99.500,60.000 C99.500,59.448 99.052,59.000 98.500,59.000 ZM98.500,74.000 L97.500,71.000 L98.500,71.000 L99.500,71.000 L98.500,74.000 ZM84.500,60.000 L87.500,59.000 L87.500,60.000 L87.500,61.000 L84.500,60.000 ZM98.500,46.000 L99.500,49.000 L98.500,49.000 L97.500,49.000 L98.500,46.000 ZM103.134,49.974 L105.500,47.876 L104.866,50.974 L103.134,49.974 ZM91.500,47.876 L93.866,49.974 L92.134,50.974 L91.500,47.876 ZM86.376,53.000 L89.474,53.634 L88.474,55.366 L86.376,53.000 ZM89.474,66.366 L86.376,67.000 L88.474,64.634 L89.474,66.366 ZM93.866,70.026 L91.500,72.124 L92.134,69.026 L93.866,70.026 ZM105.500,72.124 L103.134,70.026 L104.866,69.026 L105.500,72.124 ZM110.624,67.000 L107.526,66.366 L108.526,64.634 L110.624,67.000 Z" />
    <path class="gear-m gear-2 cls-4" d="M79.785,18.134 L84.615,16.500 L80.785,19.866 L79.785,18.134 ZM88.500,31.000 L83.500,32.000 L83.500,31.000 L83.500,30.000 L88.500,31.000 ZM59.500,55.000 C46.245,55.000 35.500,44.255 35.500,31.000 C35.500,17.745 46.245,7.000 59.500,7.000 C72.755,7.000 83.500,17.745 83.500,31.000 C83.500,44.255 72.755,55.000 59.500,55.000 ZM59.500,28.000 C57.843,28.000 56.500,29.343 56.500,31.000 C56.500,32.657 57.843,34.000 59.500,34.000 C61.157,34.000 62.500,32.657 62.500,31.000 C62.500,29.343 61.157,28.000 59.500,28.000 ZM59.500,60.000 L58.500,55.000 L59.500,55.000 L60.500,55.000 L59.500,60.000 ZM30.500,31.000 L35.500,30.000 L35.500,31.000 L35.500,32.000 L30.500,31.000 ZM59.500,2.000 L60.500,7.000 L59.500,7.000 L58.500,7.000 L59.500,2.000 ZM70.634,9.715 L74.000,5.885 L72.366,10.715 L70.634,9.715 ZM45.000,5.885 L48.366,9.715 L46.634,10.715 L45.000,5.885 ZM34.385,16.500 L39.215,18.134 L38.215,19.866 L34.385,16.500 ZM39.215,43.866 L34.385,45.500 L38.215,42.134 L39.215,43.866 ZM48.366,52.285 L45.000,56.115 L46.634,51.285 L48.366,52.285 ZM74.000,56.115 L70.634,52.285 L72.366,51.285 L74.000,56.115 ZM84.615,45.500 L79.785,43.866 L80.785,42.134 L84.615,45.500 Z" />
  </g>
</svg>
